X:1
T:Title
%%score 1 2 3
L:1/8
Q:1/4=87
M:6/8
K:Bb
V:1 treble nm="Grand Piano, Soprano"
V:2 treble nm="Drawbar Organ, Staff-1"
V:3 bass nm="Choir Pad, Which Road R U Choosing?"
V:1
 FFF FFB | c d2- d2- d/ z/ | dcc ccd | c B2- B2- B/ z/ | FFF FFB | c d2- d2- d/ z/ | dcc ced | %7
w: By~George~Frederick~Root * * * * *|||||||
 c B2- B2- B/ z/ | Bcc ccB | c d2- d2- d/ z/ | BGG GGA | B c2- c2- c/ z/ | FFF FFB | %13
w: ||||||
 c d2- d2- d/ z/ | dcc ccd | c B2- B2- B/ z/ | [Fd][Fd][Fd] [Fd][Ge][Ge] | %17
w: ||||
 [Ge] [Fd]2- [Fd]2- [Fd]/ z/ | [Fd][=Ec][EG] [EG][EG][EA] | [=EB] [Fc]2- [Fc]2- [Fc]/ z/ | %20
w: |||
 [EF][DF][DF] [DF][DF][DB] | [Ec] [Fd]2- [Fd]2- [Fd]/ z/ | [Fd][Ec][Ec] [Ec][Ec][Fd] | %23
w: |||
 [Ec] [DB]2- [DB]3- | [DB]6 |] %25
w: ||
V:2
 z2 [A,CF] .[A,CF]2 [A,CF] | [A,CF][A,CF][A,CF] z [A,CF][A,CF] | z2 [A,CEF] .[A,CEF]2 [A,CEF] | %3
 .[A,CEF]2 [B,DF] .[B,DF]2 [B,DF] | .[B,DF]2 [B,DF] .[B,DF]2 [B,DF] | %5
 .[B,DF]2 [B,DF] .[B,DF]2 [B,DF] | .[B,DF]2 [A,CEF] .[A,CEF]2 [A,CEF] | %7
 .[A,CEF]2 [B,DF] .[B,DF]2 [B,DF] | .[B,DF]2 [A,CEF] .[A,CEF]2 [A,CEF] | %9
 .[A,CEF]2 [B,DF] .[B,DF]2 [B,DF] | .[DF]2 [B,C=E] .[B,CE]2 [A,B,E] | %11
 .[A,B,D]2 [A,CF] .[A,CF]2 [A,CEF] | .[A,CEF]2 [B,DF] .[B,DF]2 [B,DF] | %13
 .[B,DF]2 [B,DF] .[B,DF]2 [B,DF] | .[B,DF]2 [A,CEF] .[A,CE]2 [A,CEF] | %15
 .[A,CE]2 [B,DF] [B,DF] [B,DF]2 | z6 | z6 | z6 | z6 | z6 | z6 | z6 | z6 | z6 |] %25
V:3
 z [B,,,B,,]2- [B,,,B,,] [B,,,B,,]2- | [B,,,B,,] [B,,,B,,]2- [B,,,B,,] [B,,,B,,]2- | %2
 [B,,,B,,] [F,,F,]2- [F,,F,] [F,,F,]2- | [F,,F,] [B,,,B,,]2- [B,,,B,,] [B,,,B,,]2- | %4
 [B,,,B,,] [B,,,B,,]2- [B,,,B,,] [B,,,B,,]2- | [B,,,B,,] [B,,,B,,]2- [B,,,B,,] [B,,,B,,]2- | %6
 [B,,,B,,] [F,,F,]2- [F,,F,] [F,,F,]2- | [F,,F,] [B,,,B,,]2- [B,,,B,,] [B,,,B,,]2- | %8
 [B,,,B,,] [F,,F,]2- [F,,F,] [F,,F,]2- | [F,,F,] [B,,,B,,]2- [B,,,B,,] [B,,,B,,]2- | %10
 [B,,,B,,] [C,,C,]2- [C,,C,] [C,,C,]2- | [C,,C,] [F,,F,]2- [F,,F,] [F,,F,]2- | %12
 [F,,F,] [B,,,A,,]2- [B,,,A,,] [B,,,A,,]2- | [B,,,A,,] [B,,,A,,]2- [B,,,A,,] [B,,,A,,]2- | %14
 [B,,,A,,] [F,,F,]2- [F,,F,] [F,,F,]2- | [F,,F,] [B,,,B,,]2- [B,,,B,,]2- [B,,,B,,]/ z/ | %16
 [B,,B,][B,,B,][B,,B,] [B,,B,][B,,B,][B,,B,] | [B,,B,] [B,,B,]2- [B,,B,]2- [B,,B,]/ z/ | %18
 [B,,B,][C,G,][C,C] [C,C][C,C][C,C] | [C,B,] [F,A,]2- [F,A,]2- [F,A,]/ z/ | %20
 [F,C][B,,B,][B,,B,] [B,,B,][B,,B,][B,,B,] | [B,,B,] [B,,B,]2- [B,,B,]2- [B,,B,]/ z/ | %22
 [B,,B,][F,A,][F,A,] [F,A,][F,A,][F,A,] | [F,A,] [B,,B,]2- [B,,B,]3- | [B,,B,]6 |] %25

